static/assets/images/exchanges/cellana.svg

<svg width="233" height="256" viewBox="0 0 233 256" fill="none" xmlns="http://www.w3.org/2000/svg">
<path d="M22.8133 47.4275C8.73822 55.3915 0 70.3984 0 86.5809V169.419C0 185.601 8.74761 200.608 22.8227 208.582L106.54 256V185.77L61.0736 160.016V95.9743L106.54 70.2197V0L22.8133 47.4275ZM86.809 58.7201L43.1836 83.431C42.0467 84.0703 41.3421 85.2832 41.3421 86.59V169.428C41.3421 170.736 42.0467 171.939 43.1836 172.578L86.809 197.289V222.141L32.5381 191.403C24.6361 186.927 19.7314 178.512 19.7314 169.428V86.59C19.7314 77.507 24.6361 69.0916 32.5381 64.6158L86.809 33.8688V58.7201ZM233 86.5809V169.419C233 185.601 224.252 200.608 210.177 208.582L126.459 256V185.77L171.926 160.016V148.385H191.658V169.419C191.658 170.726 190.953 171.93 189.816 172.569L146.191 197.28V222.131L200.462 191.393C208.364 186.918 213.269 178.502 213.269 169.419V86.5809C213.269 77.4974 208.364 69.082 200.462 64.6062L146.191 33.8594V58.711L189.816 83.4214C190.953 84.0607 191.658 85.2736 191.658 86.5809V107.615H171.926V95.9834L126.459 70.2293V0L210.177 47.4275C224.252 55.4011 232.99 70.408 232.99 86.59L233 86.5809Z" fill="#21D192"/>
</svg>

<svg xmlns="http://www.w3.org/2000/svg" fill="none" viewBox="0 0 233 256"><path fill="#21D192" d="M22.813 47.428C8.738 55.392 0 70.398 0 86.58v82.838c0 16.182 8.748 31.189 22.823 39.163L106.54 256v-70.23l-45.466-25.754V95.974L106.54 70.22V0zM86.81 58.72 43.184 83.431a3.63 3.63 0 0 0-1.842 3.159v82.838c0 1.308.705 2.511 1.842 3.15l43.625 24.711v24.852l-54.27-30.738a25.29 25.29 0 0 1-12.808-21.975V86.59a25.29 25.29 0 0 1 12.807-21.974L86.81 33.869zM233 86.58v82.839c0 16.182-8.748 31.189-22.823 39.163L126.459 256v-70.23l45.467-25.754v-11.631h19.732v21.034a3.61 3.61 0 0 1-1.842 3.15l-43.625 24.711v24.851l54.271-30.738a25.29 25.29 0 0 0 12.807-21.974V86.581a25.29 25.29 0 0 0-12.807-21.975L146.191 33.86v24.852l43.625 24.71a3.63 3.63 0 0 1 1.842 3.16v21.034h-19.732V95.983L126.459 70.23V0l83.718 47.428c14.075 7.973 22.813 22.98 22.813 39.162z"/></svg>
